X: 26979
T: Miss Dumbreck
R: reel
M: 4/4
K: Amajor
e|(dc)BA ~A2 ce|(fe)ce (fg)ae|(dc)BA ~A2 cA|BGEG Bcde|
(dc)BA ~A2 ce|(fe)ce (fg)ae|(aga)e dcBA|GEBG cEBE||
~A2 (ce) aece|aece aecA|~E2 (GB) ef^df|ef^df eBGE|
~A2 (ce) aece|aece aecA|FdEc DBCA|(EF)GA (Bc)d||

